src/cmd/ar/lc_removebullets.svg

<svg viewBox="0 0 24 24" xmlns="http://www.w3.org/2000/svg"><path d="m19 4c.552285 0 1 .4477153 1 1s-.447715 1-1 1-1-.4477153-1-1 .447715-1 1-1zm-6 0v1h-9v-1zm0 2v1h-6v-1zm6 4c.552285 0 1 .447715 1 1s-.447715 1-1 1-1-.447715-1-1 .447715-1 1-1zm-6 0v1h-9v-1zm0 2v1h-2v-1zm6 4c.552285 0 1 .447715 1 1s-.447715 1-1 1-1-.447715-1-1 .447715-1 1-1z" fill="#232629"/><path d="m9.009766 14 .990234.990234-2.009766 2.009766 2.009766 2.009766-.990234.990234-2.009766-2.009766-2.009766 2.009766-.990234-.990234 2.009766-2.009766-2.009766-2.009766.990234-.990234 2.009766 2.009766z" fill="#c7162b"/></svg>

<?xml version="1.0" encoding="UTF-8" standalone="no"?>
<svg
   xmlns:dc="http://purl.org/dc/elements/1.1/"
   xmlns:cc="http://creativecommons.org/ns#"
   xmlns:rdf="http://www.w3.org/1999/02/22-rdf-syntax-ns#"
   xmlns:svg="http://www.w3.org/2000/svg"
   xmlns="http://www.w3.org/2000/svg"
   xmlns:sodipodi="http://sodipodi.sourceforge.net/DTD/sodipodi-0.dtd"
   xmlns:inkscape="http://www.inkscape.org/namespaces/inkscape"
   viewBox="0 0 24 24"
   version="1.1"
   id="svg6"
   sodipodi:docname="lc_removebullets.svg"
   inkscape:version="0.92.4 (5da689c313, 2019-01-14)">
  <metadata
     id="metadata12">
    <rdf:RDF>
      <cc:Work
         rdf:about="">
        <dc:format>image/svg+xml</dc:format>
        <dc:type
           rdf:resource="http://purl.org/dc/dcmitype/StillImage" />
      </cc:Work>
    </rdf:RDF>
  </metadata>
  <defs
     id="defs10" />
  <sodipodi:namedview
     pagecolor="#ffffff"
     bordercolor="#666666"
     borderopacity="1"
     objecttolerance="10"
     gridtolerance="10"
     guidetolerance="10"
     inkscape:pageopacity="0"
     inkscape:pageshadow="2"
     inkscape:window-width="1920"
     inkscape:window-height="1011"
     id="namedview8"
     showgrid="true"
     inkscape:zoom="27.812867"
     inkscape:cx="2.5428709"
     inkscape:cy="14.801689"
     inkscape:window-x="0"
     inkscape:window-y="32"
     inkscape:window-maximized="1"
     inkscape:current-layer="svg6">
    <inkscape:grid
       type="xygrid"
       id="grid822" />
  </sodipodi:namedview>
  <path
     d="m 19,4 c 0.552285,0 1,0.4477153 1,1 0,0.5522847 -0.447715,1 -1,1 C 18.447715,6 18,5.5522847 18,5 18,4.4477153 18.447715,4 19,4 Z M 13,4 V 5 H 4 V 4 Z m 0,2 V 7 H 4 V 6 Z m 6,4 c 0.552285,0 1,0.447715 1,1 0,0.552285 -0.447715,1 -1,1 -0.552285,0 -1,-0.447715 -1,-1 0,-0.552285 0.447715,-1 1,-1 z m -6,0 v 1 H 4 v -1 z m 0,2 v 1 h -2 v -1 z m 6,4 c 0.552285,0 1,0.447715 1,1 0,0.552285 -0.447715,1 -1,1 -0.552285,0 -1,-0.447715 -1,-1 0,-0.552285 0.447715,-1 1,-1 z"
     id="path2"
     inkscape:connector-curvature="0"
     style="fill:#232629"
     sodipodi:nodetypes="sssssccccccccccsssssccccccccccsssss" />
  <path
     d="m9.009766 14 .990234.990234-2.009766 2.009766 2.009766 2.009766-.990234.990234-2.009766-2.009766-2.009766 2.009766-.990234-.990234 2.009766-2.009766-2.009766-2.009766.990234-.990234 2.009766 2.009766z"
     fill="#c7162b"
     id="path4" />
</svg>
